X:5759
T:Gan Ainm
R:Reel
S:
H:
N:
D:Cherish The Ladies
Z:Adrian Scahill
M:4/4
L:1/8
K:D
DEFD G3F|EA,A,2 EA,A,2|DEFA BAFA|dBB2 BAFE|\
DEFD GAFA|EA,A,2 EA,A,2|G,A,B,D EFGA|1 BAFE D3D:|2 BAFE D3c||\
d2cd BAA2|DEFA BAFE|DEFA Bcde|fedf eBB2|\
d2cd BAA2|DEFA BAFD|A,B,DE FABc|dBAF D3c:||
